src/24/actions/project-development-new-template.svg

<svg xmlns="http://www.w3.org/2000/svg" viewBox="0 0 24 24">
  <defs id="defs3051">
    <style type="text/css" id="current-color-scheme">
      .ColorScheme-Text {
        color:#5d656b;
      }
      </style>
  </defs>
 <path style="fill:currentColor;fill-opacity:1;stroke:none" 
     d="M 4 4 L 4 8 L 4 19 L 4 20 L 5 20 L 14 20 L 14 19 L 5 19 L 5 8 L 19 8 L 19 14 L 20 14 L 20 8 L 20 4 L 4 4 z M 17 14 L 16.425781 15.613281 L 14.878906 14.878906 L 15.613281 16.425781 L 14 17 L 15.613281 17.574219 L 14.878906 19.121094 L 16.425781 18.386719 L 17 20 L 17.574219 18.386719 L 19.121094 19.121094 L 18.386719 17.574219 L 20 17 L 18.386719 16.425781 L 19.121094 14.878906 L 17.574219 15.613281 L 17 14 z "
     class="ColorScheme-Text"
     />
</svg>

<svg xmlns="http://www.w3.org/2000/svg" viewBox="0 0 24 24"><path d="M4 4v16h10v-1H5V8h14v6h1V4H4zm13 10l-.574 1.613-1.547-.734.734 1.547L14 17l1.613.574-.734 1.547 1.547-.734L17 20l.574-1.613 1.547.734-.734-1.547L20 17l-1.613-.574.734-1.547-1.547.734L17 14z" fill="currentColor" color="#5d656b"/></svg>
